assets/icons/qvision/sports_mma.svg

<svg xmlns="http://www.w3.org/2000/svg" enable-background="new 0 0 24 24" height="24" viewBox="0 0 24 24" width="24"><g><rect fill="none" height="24" width="24"/></g><g><g><path d="M7,20c0,0.55,0.45,1,1,1h8c0.55,0,1-0.45,1-1v-3H7V20z"/><path d="M18,7c-0.55,0-1,0.45-1,1V5c0-1.1-0.9-2-2-2H7C5.9,3,5,3.9,5,5v5.8c0,0.13,0.01,0.26,0.04,0.39l0.8,4 c0.09,0.47,0.5,0.8,0.98,0.8h10.36c0.45,0,0.89-0.36,0.98-0.8l0.8-4C18.99,11.06,19,10.93,19,10.8V8C19,7.45,18.55,7,18,7z M15,10 H7V7h8V10z"/></g></g></svg>

<svg width="24" height="24" viewBox="0 0 24 24" fill="none" xmlns="http://www.w3.org/2000/svg">
<g clip-path="url(#clip0_147_6797)">
<path d="M7 20C7 20.55 7.45 21 8 21H16C16.55 21 17 20.55 17 20V17H7V20Z" fill="#323232"/>
<path d="M18 7C17.45 7 17 7.45 17 8V5C17 3.9 16.1 3 15 3H7C5.9 3 5 3.9 5 5V10.8C5 10.93 5.01 11.06 5.04 11.19L5.84 15.19C5.93 15.66 6.34 15.99 6.82 15.99H17.18C17.63 15.99 18.07 15.63 18.16 15.19L18.96 11.19C18.99 11.06 19 10.93 19 10.8V8C19 7.45 18.55 7 18 7ZM15 10H7V7H15V10Z" fill="#323232"/>
</g>
<defs>
<clipPath id="clip0_147_6797">
<rect width="24" height="24" fill="white"/>
</clipPath>
</defs>
</svg>
